X:1
T:Title
%%score ( 1 2 ) 3 { 4 | 5 }
L:1/8
Q:1/4=95
M:6/8
K:C
V:1 treble nm="Violin, Soprano"
V:2 treble 
V:3 treble nm="Drawbar Organ, Staff-1"
V:4 bass nm="Choir Pad, Across the Eastern Hilltops"
V:5 bass 
V:1
 G A2 G d2 | c B2 c d2 | _e =e2 c B2 | A G2- G2- G/ z/ | FE>F E G2 | Gc>d c e2 | ed>c B B2 | %7
w: By~J.~R.~Fairlamb * * *|||||||
 A G2- G2- G/ z/ | G<.G z/ A/ z c2 | c<.c z/ B/ z e2 | GGA Bcd | e f2- f2- f/ z/ | f/f/ef d c2 | %13
w: ||||||
 c/c/cd _B A2 | c e2 G d2 | G c2- c3- | c6 |] %17
w: ||||
V:2
 x6 | x6 | x6 | x6 | x6 | x6 | x6 | x6 | z G2- G z z | z c2- c z z | x6 | x6 | x6 | x6 | x6 | x6 | %16
 x6 |] %17
V:3
 G [EA]2 [EG] [Ed]2 | [Ec] [FB]2 [Fc] [Fd]2 | [F_e] [E=e]2 [Ec] [C_EB]2 | %3
 [C_EA][B,FG]>A [_B,=EG][=B,FG]>_B | [B,FG][CE]>F [CE] [DG]2 | [DG][CEc]>d [CE] [^FB]2 | %6
 [^FA][DG][B,G] G2 [CA] | [DB][DG][B,G] [CA][DB][Ec] | [FGBd][EGe]>[Af] [EGe] .[Ec]2 | %9
 [Ec][Ec]>[FBd] [Ec] .[EG]2 | [DFG] [EGe]2 [EGe] [EGe]2 | [EGe] [FGf]2- [FGf]2- [FGf]/ z/ | %12
 [FGf][EBe]f [EBd] .[EAc]2 | [EAc][E_Bc]d [CEB] [CFA]2 | [C_EAc][C=EG]>A [CEG][B,FG]>A | %15
 [B,FG][CEG]>[B,F] [G,D] [G,E]2- | [G,E]6 |] %17
V:4
 G, G,2 G, G,2 | G, G,2 F, G,2 | G, G,2 G, ^F,2 | ^F, .G,2 G, .G,2 | G, .G,2 G, G,2 | %5
 G, .A,2 A, B,2 | _B, .=B,2[K:treble] ^C D2 | ^C B,2 z G,2 | G, .C2 C .C2 | C .C2 C .C2 | %10
 B, C2 C C2 | _B, =B,2 A,G,A, | B, .^G,2 G, .A,2 | A, .G,2 G, F,2 | F, .G,2 G, .G,2 | %15
 G, C,2- C,3- | C,6 |] %17
V:5
 z C,2 C, G,,2 | G,, D,2 C, B,,2 | G,, C,2 C, ^F,,2 | ^F,, .D,2 ^C, .D,2 | G,, .C,2 C, B,,2 | %5
 B,, .[A,,E,]2 [A,,E,] [E,,E,]2 | ^C, .D,2 E, D,2 | D, G,2 z G,,2 | G,, .[C,G,]2 [C,G,] .[C,G,]2 | %9
 [C,G,] .[C,G,]2 [C,G,] .[C,G,]2 | [C,G,] [C,G,]2 [C,G,] [C,G,]2 | ^C, D,2 =C,B,,A,, | %12
 G,, .G,,2 ^G,, .A,,2 | A,, .G,,2 G,, F,,2 | ^F,, .G,,2 G,, .G,,2 | G,, C,,2- C,,3- | C,,6 |] %17

